lib/brands/icons/appcode.svg

<svg xmlns="http://www.w3.org/2000/svg" fill="none" aria-hidden="true" viewBox="0 0 48 48"><g id="appcode-Icon"><g id="Group"><path id="Vector" fill="#247CE6" d="M36.4311 34.2938L41.9998 19.5563L25.1811 15.7313L22.9873 22.0313L36.4311 34.2938Z"/><path id="Vector_2" fill="url(#paint0_linear_94_17125)" d="M42.0002 34.8563L33.5064 42L16.5752 37.6125L21.1314 29.4L42.0002 34.8563Z"/><path id="Vector_3" fill="url(#paint1_linear_94_17125)" d="M10.9498 23.8875L6.6748 11.5687L25.7436 6L24.2248 21.975L10.9498 23.8875Z"/><path id="Vector_4" fill="url(#paint2_linear_94_17125)" d="M37.3875 26.8125L32.0437 17.7L32.1562 17.6438L25.7437 6L6 27.3188V42L41.8875 34.8562L37.3875 26.8125Z"/><path id="Vector_5" fill="black" d="M35.25 12.75H12.75V35.25H35.25V12.75Z"/><path id="Vector_6" fill="white" d="M14.8311 31.0312H23.2686V32.4375H14.8311V31.0312ZM18.5436 15.675H20.3998L24.3373 24.9562H22.1998L21.3561 22.875H17.4748L16.6311 24.9562H14.5498L18.5436 15.675ZM20.6811 21.1312L19.4436 18.15L18.2061 21.1312H20.6811ZM23.8311 20.4C23.7999 19.0928 24.3055 17.8299 25.2301 16.9053C26.1547 15.9807 27.4176 15.4751 28.7248 15.5062C30.4686 15.5062 31.5373 16.0687 32.4373 16.9687L31.1436 18.4875C30.4123 17.8125 29.6811 17.4187 28.7248 17.4187C27.1498 17.4187 26.0248 18.7125 26.0248 20.3437C26.0248 21.975 27.1498 23.2687 28.7248 23.2687C29.7936 23.2687 30.4686 22.8187 31.1998 22.1437L32.4936 23.4937C31.5373 24.5062 30.4686 25.1812 28.6686 25.1812C27.3858 25.2135 26.1451 24.722 25.2325 23.8199C24.3198 22.9179 23.8138 21.6831 23.8311 20.4Z"/></g></g><defs><linearGradient id="paint0_linear_94_17125" x1="16.6033" x2="42.0002" y1="35.7" y2="35.7" gradientUnits="userSpaceOnUse"><stop offset="0.19" stop-color="#00DAF0"/><stop offset="0.9" stop-color="#247CE6"/></linearGradient><linearGradient id="paint1_linear_94_17125" x1="51.105" x2="1345.87" y1="-12169.3" y2="-12169.3" gradientUnits="userSpaceOnUse"><stop offset="0.19" stop-color="#00DAF0"/><stop offset="0.9" stop-color="#247CE6"/></linearGradient><linearGradient id="paint2_linear_94_17125" x1="29.5884" x2="11.6779" y1="43.1419" y2="18.3044" gradientUnits="userSpaceOnUse"><stop offset="0.09" stop-color="#1DDF93"/><stop offset="0.48" stop-color="#00DAF0"/><stop offset="0.9" stop-color="#247CE6"/></linearGradient></defs></svg>

<svg xmlns="http://www.w3.org/2000/svg" fill="none" aria-hidden="true" viewBox="0 0 48 48"><path fill="#247CE6" d="M36.431 34.294 42 19.556l-16.82-3.825-2.194 6.3L36.43 34.294Z"/><path fill="url(#a)" d="M42 34.856 33.506 42l-16.93-4.388L21.13 29.4 42 34.856Z"/><path fill="url(#b)" d="M10.95 23.887 6.675 11.57 25.744 6l-1.52 15.975-13.274 1.912Z"/><path fill="url(#c)" d="M37.388 26.813 32.044 17.7l.112-.056L25.744 6 6 27.319V42l35.888-7.144-4.5-8.044Z"/><path fill="#000" d="M35.25 12.75h-22.5v22.5h22.5v-22.5Z"/><path fill="#fff" d="M14.831 31.031h8.438v1.407H14.83V31.03Zm3.713-15.356H20.4l3.937 9.281H22.2l-.844-2.081h-3.881l-.844 2.081H14.55l3.994-9.281Zm2.137 5.456-1.237-2.981-1.238 2.981h2.475Zm3.15-.731a4.78 4.78 0 0 1 4.894-4.894c1.744 0 2.812.563 3.712 1.463l-1.293 1.518c-.732-.674-1.463-1.068-2.42-1.068-1.574 0-2.7 1.293-2.7 2.925 0 1.631 1.126 2.925 2.7 2.925 1.07 0 1.745-.45 2.476-1.125l1.294 1.35c-.957 1.012-2.025 1.687-3.825 1.687A4.719 4.719 0 0 1 23.83 20.4Z"/><defs><linearGradient id="a" x1="16.603" x2="42" y1="35.7" y2="35.7" gradientUnits="userSpaceOnUse"><stop offset=".19" stop-color="#00DAF0"/><stop offset=".9" stop-color="#247CE6"/></linearGradient><linearGradient id="b" x1="51.105" x2="1345.87" y1="-12169.3" y2="-12169.3" gradientUnits="userSpaceOnUse"><stop offset=".19" stop-color="#00DAF0"/><stop offset=".9" stop-color="#247CE6"/></linearGradient><linearGradient id="c" x1="29.588" x2="11.678" y1="43.142" y2="18.304" gradientUnits="userSpaceOnUse"><stop offset=".09" stop-color="#1DDF93"/><stop offset=".48" stop-color="#00DAF0"/><stop offset=".9" stop-color="#247CE6"/></linearGradient></defs></svg>
